src/lib/packages/icons/src/assets/line/video-circle.svg

<svg width="24" height="24" viewBox="0 0 24 24" fill="none" xmlns="http://www.w3.org/2000/svg">
<path d="M12 1.25C6.072 1.25 1.25 6.072 1.25 12C1.25 17.928 6.072 22.75 12 22.75C17.928 22.75 22.75 17.928 22.75 12C22.75 6.072 17.928 1.25 12 1.25ZM12 21.25C6.899 21.25 2.75 17.101 2.75 12C2.75 6.899 6.899 2.75 12 2.75C17.101 2.75 21.25 6.899 21.25 12C21.25 17.101 17.101 21.25 12 21.25ZM17.5901 8.51001C17.1831 8.31501 16.7131 8.3689 16.3611 8.6499L15.467 9.36499C15.311 8.11199 14.4721 7.3999 13.0991 7.3999H8.1499C6.6249 7.3999 5.75 8.27505 5.75 9.80005V14.2C5.75 15.725 6.6249 16.6001 8.1499 16.6001H13.0991C14.4711 16.6001 15.311 15.887 15.467 14.634L16.3601 15.3479C16.5721 15.5179 16.827 15.605 17.085 15.605C17.256 15.605 17.4291 15.566 17.5901 15.489C17.9971 15.294 18.25 14.8919 18.25 14.4409V9.55688C18.25 9.10688 17.9971 8.70601 17.5901 8.51001ZM14 14.2C14 14.889 13.7901 15.1001 13.1001 15.1001H8.15088C7.46088 15.1001 7.25098 14.89 7.25098 14.2V9.80005C7.25098 9.11105 7.46088 8.8999 8.15088 8.8999H13.1001C13.7901 8.8999 14 9.11005 14 9.80005V14.2ZM16.75 13.739L15.5 12.739V11.26L16.75 10.26V13.739Z" fill="currentColor"/>
</svg>

<svg xmlns="http://www.w3.org/2000/svg" width="24" height="24" fill="none"><path fill="currentColor" d="M12 1.25C6.072 1.25 1.25 6.072 1.25 12S6.072 22.75 12 22.75 22.75 17.928 22.75 12 17.928 1.25 12 1.25Zm0 20c-5.101 0-9.25-4.149-9.25-9.25S6.899 2.75 12 2.75s9.25 4.149 9.25 9.25-4.149 9.25-9.25 9.25Zm5.59-12.74a1.154 1.154 0 0 0-1.229.14l-.894.715c-.156-1.253-.995-1.965-2.368-1.965H8.15c-1.524 0-2.399.875-2.399 2.4v4.4c0 1.525.875 2.4 2.4 2.4h4.95c1.371 0 2.211-.713 2.367-1.966l.893.714a1.156 1.156 0 0 0 1.23.141c.407-.195.66-.597.66-1.048V9.557c0-.45-.253-.851-.66-1.047ZM14 14.2c0 .689-.21.9-.9.9H8.15c-.69 0-.899-.21-.899-.9V9.8c0-.689.21-.9.9-.9h4.95c.69 0 .899.21.899.9v4.4Zm2.75-.461-1.25-1V11.26l1.25-1v3.479Z"/></svg>
